gama.ui.shared/icons_svg/light/display/zoom.in.svg

<?xml version="1.0" encoding="UTF-8" standalone="no"?>
<!DOCTYPE svg PUBLIC "-//W3C//DTD SVG 1.1//EN" "http://www.w3.org/Graphics/SVG/1.1/DTD/svg11.dtd">
<svg version="1.1" xmlns="http://www.w3.org/2000/svg" xmlns:xl="http://www.w3.org/1999/xlink" xmlns:dc="http://purl.org/dc/elements/1.1/" viewBox="-392.5 -3768.755 25.000035 25" width="25.000035" height="25">
  <defs/>
  <g id="SOURCES" stroke-dasharray="none" fill="none" stroke="none" fill-opacity="1" stroke-opacity="1">
    <title>SOURCES</title>
    <g id="SOURCES_Calque_2">
      <title>Calque 2</title>
      <g id="Graphic_8991">
        <circle cx="-379.99997" cy="-3756.255" r="12.0000278184556" fill="white"/>
        <circle cx="-379.99997" cy="-3756.255" r="12.0000278184556" stroke="black" stroke-linecap="round" stroke-linejoin="round" stroke-width=".2500004"/>
      </g>
      <g id="Group_8992">
        <title>plus</title>
        <g id="Graphic_8993">
          <path d="M -379.49997 -3756.755 L -373.99997 -3756.755 C -373.71997 -3756.755 -373.49997 -3756.535 -373.49997 -3756.255 C -373.49997 -3755.975 -373.71997 -3755.755 -373.99997 -3755.755 L -379.49997 -3755.755 L -379.49997 -3750.255 C -379.49997 -3749.975 -379.71997 -3749.755 -379.99997 -3749.755 C -380.27997 -3749.755 -380.49997 -3749.975 -380.49997 -3750.255 L -380.49997 -3755.755 L -385.99997 -3755.755 C -386.27997 -3755.755 -386.49997 -3755.975 -386.49997 -3756.255 C -386.49997 -3756.535 -386.27997 -3756.755 -385.99997 -3756.755 L -380.49997 -3756.755 L -380.49997 -3762.255 C -380.49997 -3762.535 -380.27997 -3762.755 -379.99997 -3762.755 C -379.71997 -3762.755 -379.49997 -3762.535 -379.49997 -3762.255 Z" fill="#66727e"/>
        </g>
      </g>
    </g>
  </g>
</svg>

<svg height="25" viewBox="-392.5 -3768.755 25 25" width="25" xmlns="http://www.w3.org/2000/svg"><g fill="none"><circle cx="-380" cy="-3756.255" fill="#fff" r="12"/><circle cx="-380" cy="-3756.255" r="12" stroke="#000" stroke-linecap="round" stroke-linejoin="round" stroke-width=".25"/><path d="m-379.49997-3756.755h5.5c.28 0 .5.22.5.5s-.22.5-.5.5h-5.5v5.5c0 .28-.22.5-.5.5s-.5-.22-.5-.5v-5.5h-5.5c-.28 0-.5-.22-.5-.5s.22-.5.5-.5h5.5v-5.5c0-.28.22-.5.5-.5s.5.22.5.5z" fill="#66727e"/></g></svg>
